X:1
T:O the Way Is Long and Weary
T:George Frederick Root (1820-1895)
T:O the Way Is Long and Weary
T:Public Domain
T:Public Domain
T:Public Domain
C:George Frederick Root (1820-1895)
Z:Public Domain
%%score ( 1 2 ) ( 3 4 )
L:1/8
M:4/4
K:Bb
V:1 treble 
V:2 treble 
V:3 bass 
V:4 bass 
V:1
 [B,D][CE] | [DF][DF][DF][DF] [EG][GB][FA][EG] | [DF][EG][CE][DF] [B,D]2 [B,D][B,D] | %3
w: 1.~O the|way is long and wear- y, And our|bleed- ing feet are sore; Is it|
w: 2.~Thro’ the|wil- der- ness we’re foll- ’wing Where the|strong- er ones have led; Is it|
w: 3.~O how|sweet would be a rest- ing place, A|safe and qui- et home; Is it|
 [B,D][A,C][A,C][B,D] [CE]2 [CE][CE] | [CE][B,D][B,D][CE] [DF]2 [B,D][CE] | %5
w: far to Ca- naan’s land? Is it|far to Ca- naan’s land? In the|
w: far to Ca- naan’s land? Is it|far to Ca- naan’s land? Where the|
w: far to Ca- naan’s land? Is it|far to Ca- naan’s land? Where the|
 [DF][DF][DF][DF] [EG][GB][FA][EG] | [DF][EG][CE][DF] [B,D]2 [FB]>[FA] | %7
w: des- ert we are long- ing For its|shel- ter more and more Is it|
w: sand is oft- en burn- ing, And the|ground our on- ly bed. Is it|
w: cru- el days of bond- age And of|fear will nev- er come, Is it|
 [EG]2 [Gc]>[GB] [FA]F [Fd]>[Ec] | (D2 E>E D2) ||"^Refrain" [Fd]>[Ge] | [Fd] [Ec]3 z2 [Ec]>[Fd] | %11
w: far, is it far to Ca- naan’s|We * * *|wear- y|We are wear- y|
w: far, is it far to Ca- naan’s||||
w: far, is it far to Ca- naan’s||||
 [Ec] [DB]3 z2 [DB]>[Ec] | [EB][EA] [EA]>[EB] [EA][EG] [EG]>[EA] | %13
w: Sad- ly wand- ’ring|thro’ the wil- der- ness, And o’er the|
w: ||
w: ||
 [DG][DF][B,D][EG] [DF]2 [Fd]>[Ge] | [Fd] [Ec]3 z2 [Ec]>[Fd] | [Ec] [DB]3 z2 [FB]>[FA] | %16
w: des- ert sand; We are wear- y,|oh so wear- y,|Is it far, is|
w: |||
w: |||
 [EG]2 [Gc]>[GB] [FA]F [Fd]>[Ec] | (D2 E>E D2) |] %18
w: it far to Ca- naan’s land? *||
w: ||
w: ||
V:2
 x2 | x8 | x8 | x8 | x8 | x8 | x8 | x5 F x2 | B6 || x2 | x8 | x8 | x8 | x8 | x8 | x8 | x5 F x2 | %17
w: |||||||land?|are|||||||||
w: |||||||land?||||||||||
w: |||||||land?||||||||||
 B4 x2 |] %18
w: |
w: |
w: |
V:3
 [B,,F,][B,,F,] | [B,,B,][B,,B,][B,,B,][B,,B,] [E,B,][E,B,][E,B,][E,B,] | %2
w: ~ ~|~ ~ ~ ~ ~ ~ ~ ~|
 [F,B,][F,B,][F,A,][F,A,] [B,,F,]2 [B,,F,][D,F,] | F,F,F,F, F,2 F,F, | %4
w: ~ ~ ~ ~ ~ ~ ~|~ ~ ~ ~ ~ ~ ~|
 [B,,F,][B,,F,][B,,F,][B,,B,] [B,,B,]2 [B,,F,][B,,F,] | %5
w: ~ ~ ~ ~ ~ ~ ~|
 [B,,B,][B,,B,][B,,B,][B,,B,] [E,B,][E,B,][E,B,][E,B,] | %6
w: ~ ~ ~ ~ ~ ~ ~ ~|
 [F,B,][F,B,][F,A,][F,A,] [B,,F,]2 [D,B,]>[D,B,] | %7
w: ~ ~ ~ ~ ~ ~ ~|
 [E,B,]2 [E,G,]>[E,G,] [F,A,][F,A,] [F,A,]>[F,A,] | (B,2 G,>G, F,2) || [B,,B,]>[B,,B,] | %10
w: ~ ~ ~ wear- y, faint and|sore, * * *|are wear-|
 [F,A,][F,A,][F,A,][F,A,] [F,A,]2 [F,A,]>[F,A,] | %11
w: y, faint and sore ~ ~ ~|
 [B,,B,][B,,F,][B,,F,][B,,F,] [B,,F,]2 [B,,B,]>[B,,B,] | %12
w: ~ ~ ~ ~ ~ ~ ~|
 [F,C][F,C] [F,C]>[F,C] [F,C][F,C] [F,C]>[F,C] | [B,,B,]2 [B,,B,]2 [B,,B,]2 [B,,B,]>[B,,B,] | %14
w: ~ ~ ~ ~ ~ wear- y, faint,|and sore, oh, so wear-|
 [F,A,][F,A,][F,A,][F,A,] [F,A,]2 [F,A,]>[F,A,] | %15
w: y, faint and sore * * *|
 [B,,B,][B,,F,][B,,F,][B,,F,] [B,,F,]2 [D,B,]>[D,B,] | %16
w: |
 [E,B,]2 [E,G,]>[E,G,] [F,A,][F,A,] [F,A,]>[F,A,] | (B,2 G,>G, F,2) |] %18
w: ||
V:4
 x2 | x8 | x8 | F,F,F,F, F,2 F,F, | x8 | x8 | x8 | x8 | B,,6 || x2 | x8 | x8 | x8 | x8 | x8 | x8 | %16
w: |||~ ~ ~ ~ ~ ~ ~|||||We||||||||
 x8 | B,,4 x2 |] %18
w: ||

